Hatter-kde/actions/24/kdenlive-custom-effect.svg

<?xml version="1.0" encoding="UTF-8"?>
<svg viewBox="0 0 24 24" xmlns="http://www.w3.org/2000/svg">
 <defs id="defs3051">
  <style id="current-color-scheme" type="text/css">.ColorScheme-Text {
        color:#363636;
      }</style>
 </defs>
 <g transform="translate(1,1)">
  <path class="ColorScheme-Text" d="m11 3-3 6h-5l4 4-1 6 5-3s4.0109-2.9893 4-3l4-4h-5l-3-6zm7 8-6 6v1 1h2l6-6-2-2zm-0.28125 1.6875 0.5625 0.59375-4.9688 5-0.59375-0.59375 5-5z" fill="currentColor"/>
 </g>
</svg>

<svg xmlns="http://www.w3.org/2000/svg" viewBox="0 0 24 24">
  <defs id="defs3051">
    <style type="text/css" id="current-color-scheme">
      .ColorScheme-Text {
        color:#363636;
      }
      </style>
  </defs><g transform="translate(1,1)">
 <path 
     style="fill:currentColor;fill-opacity:1;stroke:none" 
     d="M 11 3 L 8 9 L 3 9 L 7 13 L 6 19 L 11 16 C 11 16 15.0109 13.0107 15 13 L 19 9 L 14 9 L 11 3 z M 18 11 L 17 12 L 12 17 L 12 18 L 12 19 L 14 19 L 15 18 L 19 14 L 20 13 L 18 11 z M 17.71875 12.6875 L 18.28125 13.28125 L 13.3125 18.28125 L 12.71875 17.6875 L 17.71875 12.6875 z "
     class="ColorScheme-Text"
     />
</g></svg>
